X:010
%%topmargin 3cm
T:Hardy Man the Fiddler
B:The Nelson Music Collection
N:Newton F. Tolman & K. Dep. Gilbert
Z:Transcribed by Ralph Palmer
R:Slip Jig
L:1/8
M:9/8
K:GDor
A2 {BA}G FCD F2 G | A3 AGA cAG | {AB}A2 G FDE F2 G | Add ded cAG :|
A<dd d2 e f2 f | Add ded cAG | A<dd d2 e f2 g | agf ged cAG |
A<dd d2 e f2 f | Add ded cAG | dcA cde f2 g | agf ged cAG |]

